!!!COM: Haydn, Franz Joseph
!!!OPR: String Quartet in D Major
!!!ONM: Opus 71, No. 2
!!!OTL: Affettuoso 
!!!OMV: 4
!!!SCT: H III:70
!!!SCA: Thematisch-bibliographisches Werkevererzeichnis (A. van Hoboken)
!!!YOR: Trautwein Edition
!!!EED: Frances Bennion
!!!ENC: Frances Bennion
!!!CDT: 1732/3/31/-1809/5/31/
!!!OCY: Österreich
!!!YEC: Copyright (c) 1994, 2000 Center for Computer Assisted Research in the Humanities
!!!YEM: Rights to all derivative editions reserved.
!!!YEM: Refer to licensing agreement for further details.
!!!YEN: United States of America
**kern	**kern	**kern	**kern
*k[f#c#]	*k[f#c#]	*k[f#c#]	*k[f#c#]
*D:	*D:	*D:	*D:
*clefF	*clefF	*clefC3	*clefF4
*M6/8	*M6/8	*M6/8	*M6/8
*tb16	*tb16	*tb16	*tb16
=0-	=0-	=0-	=0-
2r	2r	2r	2r
8a	4r	4r	4r
8g	.	.	.
=1	=1	=1	=1
8f#	4d	4A	4D
8e	.	.	.
8f#	8r	8r	8r
8g	4e	4B	4GG
8f#	.	.	.
8g	8r	8r	8r
=2	=2	=2	=2
8e	4c#	4G	4AA
8d	.	.	.
8e	8r	8r	8r
8f#	8d	8F#	8D
8dd	8r	8r	8r
8cc#	8d	8A	8F#
=3	=3	=3	=3
8r	8d	8B	8G
8b	8r	8r	8r
8a	8d	8F#	8F#
8r	8c#	8A	8E
8g	8r	8r	8r
8f#	8d	8A	8D
=4	=4	=4	=4
4a	4f#	8D	4.AA
.	.	8F#	.
8f#	8d	8G#	.
8e	8c#	8A	8A
8a	4r	4r	4r
8g	.	.	.
=5	=5	=5	=5
8f#	4d	4A	4D
8e	.	.	.
8f#	8r	8r	8r
8g	4e	4B	4GG
8f#	.	.	.
8g	8r	8r	8r
=6	=6	=6	=6
8e	4c#	4G	4AA
8d	.	.	.
8e	8r	8r	8r
8f#	8d	8F#	8D
8a	8r	8r	8r
8a#	8g	8e	8c#
=7	=7	=7	=7
8b	4.f#	8f#	8d
8cc#	.	8e	8c#
8dd	.	8d	8B
8a	4e	8c#	4.E
8b	.	8d	.
8g#	8d	8B	.
=8	=8	=8	=8
4.b	4.d	4.G#	4AA
.	.	.	8E
8a	8c#	8A	8A
4r	4r	8e	8c#
.	.	8f#	8d
=9	=9	=9	=9
2r	2r	8g	8e
.	.	8d	8B
.	.	8e	8c#
.	.	8f#	8d
8a	8f#	8c	8D
8b	8g	8B	8D
=10	=10	=10	=10
8cc	8a	8A	2D
8g	8e	8B	.
8a	8f#	8A	.
8b	8g	8G	.
8cc#	8e	8G	8E
8dd	8f#	8F#	8D
=11	=11	=11	=11
8ee	8g	8E	4C#
8g	8e	8A	.
8f#	8d	8A	8D
8b	4.B	8d	4.GG
8g	.	8E	.
8e	.	8G	.
=12	=12	=12	=12
4.d	8A	4F#	2AA
.	8B	.	.
.	8G#	8F	.
8c#	8A	8E	.
8a	4r	4r	4r
8g	.	.	.
=13	=13	=13	=13
8f#	8r	2.r	2.r
8e	8d	.	.
8f#	8c#	.	.
8g	8B	.	.
8f#	8A	.	.
8g	8B	.	.
=14	=14	=14	=14
8e	8c#	8r	2.r
8d	8B	8A	.
8e	8c#	8G	.
8f#	4d	8F#	.
8g	.	8E	.
8a	8c#	8F#	.
=15	=15	=15	=15
8a	4.B	4.G	8r
8g	.	.	8E
8g	.	.	8D
4.g	4.A	4.e	8C#
.	.	.	8BB
.	.	.	8C#
=16	=16	=16	=16
8f#	[2.d	4.A	4.D
8d	.	.	.
8g#	.	.	.
8a	.	4.D	4.FF#
8d	.	.	.
8a#	.	.	.
=17	=17	=17	=17
8b	4.d]	[2.D	4.GG
8d	.	.	.
8b	.	.	.
8cc	4.a	.	4.FF#
8d	.	.	.
8cc	.	.	.
=18	=18	=18	=18
8b	4g	4D]	4GG
8d	.	.	.
8cc#	8e	8A	8G
8dd	8d	8A	8F#
8r	8r	8r	4r
8b	8g	8c#	.
=19	=19	=19	=19
8a	8f#	8d	4r
8r	8r	8r	.
8g	8e	8B	8GG
8f#	4d	4A	4.AA
8a	.	.	.
8c#	8c#	8G	.
=20	=20	=20	=20
4.e	4.c#	4.G	4DD
.	.	.	8AA
8d	8d	8F#	8D
8aa 8a	8a 8ee	8c#	8A
8gg 8a	8ee 8a	8c#	8c#
=21	=21	=21	=21
8ff 8a	8ff 8a	8d	8d
8ee 8a	8cc#	8g	8e
8dd	8dd	8f	8f
8ee	[4.dd	4.b-	4.g
8gg	.	.	.
8ff	.	.	.
=22	=22	=22	=22
8ee	4.dd]	4.b	4.g#
8ff	.	.	.
8dd	.	.	.
8cc#	16cc#	8a	8a
.	16A	.	.
8aa	16B	4r	4r
.	16c#	.	.
8gg	16d	.	.
.	16e	.	.
=23	=23	=23	=23
8ff	16f	16d	2.r
.	16g	16e	.
8ddd	16a	16f	.
.	16f	16d	.
8ccc	16g	16e	.
.	16a	16f	.
16bb-	16b-	16g	.
16aa	16cc	16a	.
16gg	16dd	16b-	.
16ff#	16ee-	16cc	.
16gg	16dd	16b-	.
16aa	16cc	16a	.
=24	=24	=24	=24
16bb-	16b-	16g	2.r
16aa	16cc	16a	.
16gg	16dd	16b-	.
16ff#	16ee-	16cc	.
16gg	16dd	16b-	.
16aa	16cc	16a	.
16bb-	16b-	16g	.
16aa	16cc	16a	.
16gg	16dd	16b-	.
16ff	16cc	16a	.
16ee	16b-	16g	.
16dd	16a	16f	.
=25	=25	=25	=25
16cc	16g	16e	2.r
16dd	16a	16f	.
16ee	16b-	16g	.
16dd	16a	16f	.
16ee	16b-	16g	.
16ff	16a	16f	.
16gg	16g	16e	.
16aa	16f	16d	.
16bb-	16e	16c	.
16ee	16b-	16g	.
16ff	16cc	16a	.
16gg	16b-	16e	.
=26	=26	=26	=26
8aa	8a	4f	16FF
.	.	.	16GG
8aa	8ff	.	16AA
.	.	.	16BB-
8gg	8ee	2r	16C
.	.	.	16C#
8r	8r	.	16D
.	.	.	16E
8ff	8dd	.	16F
.	.	.	16G
8ee	8cc	.	16G#
.	.	.	16A
=27	=27	=27	=27
8r	8r	4.r	16B-
.	.	.	16c
8dd	8b-	.	16d
.	.	.	16e
8cc	16a	.	16f
.	16g	.	16e
16b	4.f	[4.g	4.d
16cc	.	.	.
16dd	.	.	.
16ee	.	.	.
16ff	.	.	.
16b	.	.	.
=28	=28	=28	=28
16cc	4.e	2.g]	4.c
16dd	.	.	.
16ee	.	.	.
16ff	.	.	.
16gg	.	.	.
16aa	.	.	.
16bb-	4.e 4.cc	.	4.B-
16ccc	.	.	.
16ddd	.	.	.
16eee	.	.	.
16fff	.	.	.
16ggg	.	.	.
=29	=29	=29	=29
4.aaa	4.cc 4.f	16c	16A
.	.	16d	16B-
.	.	16e	16c
.	.	16f	16d
.	.	16g	16e
.	.	16a	16f
8ggg	16dd	8b-	8B-
.	16b-	.	.
8fff	8a	8cc	8c
8eee	8g	8c	8C
=30	=30	=30	=30
8fff	8f	[2.f	4F
8ff	8a	.	.
8ddd	8b	.	2r
8eee-	8cc	.	.
8ff	8a	.	.
8ccc#	8a	.	.
=31	=31	=31	=31
8ddd	4b-	2f_	2.r
8dd	.	.	.
8aa	8cc#	.	.
8bb-	8dd	.	.
8gg	8b-	8f]	.
8ee	8g	8B-	.
=32	=32	=32	=32
[2.ff	4f	8A	[2.FF
.	.	8F	.
.	8g	8B	.
.	4a-	8c	.
.	.	8F	.
.	8a	8c#	.
=33	=33	=33	=33
4ff]	4b-	8d	2.FF_
.	.	8F	.
8ff#	8a	8c	.
8gg	4.g	4.B-	.
8bb-	.	.	.
8ee	.	.	.
=34	=34	=34	=34
8ff	8a	8A	8FF]
8cc	4.r	2r	2r
8b-	.	.	.
8a	.	.	.
8g	8f	.	.
8a	8e	8r	8r
=35	=35	=35	=35
8b-	8d	2r	2.r
8a	8c	.	.
8b-	8d	.	.
8g	8e	.	.
8f	8d	8c	.
8g	8e	8B-	.
=36	=36	=36	=36
8a	4f	8A	2r
8b-	.	8G	.
4cc	8e-	8A	.
.	4.d	4.F#	.
8b-	.	.	8D
8a	.	.	8C
=37	=37	=37	=37
8g	4d	4G	8BB-
8f#	.	.	8AA
8g	16dd	8g	8BB-
.	16b-	.	.
8a	4.a	4.g	8C
8ee-	.	.	8BB-
8dd	.	.	8C
=38	=38	=38	=38
8cc	4.a	4.f#	4.D
8b-	.	.	.
8cc	.	.	.
4b-	8g	4.g	4.E-
.	8e-	.	.
8r	8d	.	.
=39	=39	=39	=39
8r	8c	8G	4.E
8cc	8B	8g	.
8b-	8c	8g	.
8a	8r	4.c	4.F
8g	8f	.	.
8a	8e-	.	.
=40	=40	=40	=40
8r	8d	8A	4.F#
8dd	8c#	8a	.
8cc	8d	8a	.
8b-	8r	4.d	4.G
8a	8g	.	.
8b-	8f	.	.
=41	=41	=41	=41
8r	8e	8B	4.G#
8ee	8d	8b	.
8dd	8e	8b	.
8cc#	8e	8e	8A
8a	4r	8r	8r
8g#	.	8d	8B-
=42	=42	=42	=42
8r	2.r	8c#	8A
8a	.	8r	8r
8g#	.	8d	8B-
8r	.	8c#	8A
8a	.	8r	8r
8g#	.	8d	8B-
=43	=43	=43	=43
8r	4r	8c#	8A
8a	.	8r	2r
8g#	8d	8f]	.
8r	8c#	8e	.
8a	8r	8r	.
8g#	8d	8f	8r
=44	=44	=44	=44
8r	8c#	8e	2.r
8a	8r	8r	.
8g#	8d	8f	.
8r	8c#	8e	.
8a	8r	8r	.
8g#	8d	8f	.
=45	=45	=45	=45
8r	8c#	8e	2.r
8a	8r	8r	.
8g#	8d	8f	.
8r	8c#	8e	.
8a	8r	8r	.
8g#	8d	8f	.
=46	=46	=46	=46
8r	8c#	8e	2.r
8a	8r	8r	.
8g#	8d	8f	.
8r	8c#	8e	.
8a	4r	4r	.
8g	.	.	.
=47	=47	=47	=47
8f#	4d	4A	4D
8e	.	.	.
8f#	8r	8r	8r
8g	4e	4B	4GG
8f#	.	.	.
8g	8r	8r	8r
=48	=48	=48	=48
8e	4c#	4G	4AA
8d	.	.	.
8e	8r	8r	8r
8f#	8d	8F#	8D
8dd	8r	8r	8r
8cc#	8d	8A	8F#
=49	=49	=49	=49
8r	8d	8B	8G
8b	8r	8r	8r
8a	8d	8F#	8F#
8r	8c#	8A	8E
8g	8r	8r	8r
8f#	8d	8A	8D
=50	=50	=50	=50
4a	4f#	8D	4.AA
.	.	8F#	.
8f#	8d	8G#	.
8e	8c#	8A	8A
8a	16f#	4r	4r
.	16A	.	.
8g	16e	.	.
.	16A	.	.
=51	=51	=51	=51
8f#	16e	4A	4D
.	16A	.	.
8e	16c#	.	.
.	16A	.	.
8f#	16d	8r	8r
.	16A	.	.
8g	16e	4B	4GG
.	16B	.	.
8f#	16d#	.	.
.	16B	.	.
8g	16e	8r	8r
.	16B	.	.
=52	=52	=52	=52
8e	16c#	4G	4AA
.	16A	.	.
8d	16B	.	.
.	16A	.	.
8e	16c#	8r	8r
.	16A	.	.
8f#	8d	8F#	8D
8a	8r	8r	8r
8a#	8g	8e	8c#
=53	=53	=53	=53
16cc#	4.f#	8f#	8d
16b	.	.	.
16dd	.	8e	8c#
16cc#	.	.	.
16ee	.	8d	8B
16dd	.	.	.
8a	4e	8c#	4.E
8b	.	8d	.
8g#	8d	8B	.
=54	=54	=54	=54
4.b	4.d	4.G#	4AA
.	.	.	8E
8a	8c#	8A	8A
4r	4r	16e	8c#
.	.	16a	.
.	.	16f#	8d
.	.	16a	.
=55	=55	=55	=55
2r	2r	16g	8e
.	.	16a	.
.	.	16d	8B
.	.	16a	.
.	.	16e	8c#
.	.	16a	.
.	.	16f#	8d
.	.	16a	.
16a	8f#	8c	8D
16dd	.	.	.
16b	8g	8B	8D
16dd	.	.	.
=56	=56	=56	=56
16cc	8a	8A	2D
16dd	.	.	.
16g	8e	8B	.
16dd	.	.	.
16a	8f#	8A	.
16dd	.	.	.
8b	8g	8G	.
8cc#	8e	8G	8E
8dd	8f#	8F#	8D
=57	=57	=57	=57
8ee	8g	8E	4C#
8g	8e	8A	.
8f#	8d	8A	8D
8b	4.B	8d	4.GG
16a	.	8E	.
16g	.	.	.
16f#	.	8G	.
16e	.	.	.
=58	=58	=58	=58
4.d	8A	4F#	2AA
.	8B	.	.
.	8G#	8F	.
8c#	8A	8E	.
16a	4r	4r	4r
16b	.	.	.
16g	.	.	.
16a	.	.	.
=59	=59	=59	=59
8f#	8r	2.r	2.r
8e	16d	.	.
.	16e	.	.
8f#	16c#	.	.
.	16d	.	.
8g	8B	.	.
8f#	8A	.	.
8g	8B	.	.
=60	=60	=60	=60
8e	8c#	8r	2.r
8d	8B	16A	.
.	.	16B	.
8e	8c#	16G	.
.	.	16A	.
8f#	4d	8F#	.
8g	.	8E	.
8a	8c#	8F#	.
=61	=61	=61	=61
8a	4.B	4.G	8r
8g	.	.	16E
.	.	.	16F#
8g	.	.	16D
.	.	.	16E
4.g	4.A	4.e	8C#
.	.	.	8BB
.	.	.	8C#
=62	=62	=62	=62
16f#	[2.d	4.A	4.D
16e	.	.	.
16f#	.	.	.
16d	.	.	.
8g#	.	.	.
16a	.	4.D	4.FF#
16g#	.	.	.
16a	.	.	.
16d	.	.	.
8a#	.	.	.
=63	=63	=63	=63
16b	4.d]	[2.D	4.GG
16a#	.	.	.
16b	.	.	.
16d	.	.	.
8b	.	.	.
16cc	4.a	.	4.FF#
16b	.	.	.
16cc	.	.	.
16d	.	.	.
8cc	.	.	.
=64	=64	=64	=64
16b	4g	4D]	4GG
16a#	.	.	.
16b	.	.	.
16d	.	.	.
8cc#	8e	8A	8G
16dd	8d	8A	8F#
16ff#	.	.	.
16ee	8r	8r	4r
16dd	.	.	.
16cc#	8g	8c#	.
16b	.	.	.
=65	=65	=65	=65
16a	8f#	8d	4r
16dd	.	.	.
16cc#	8r	8r	.
16b	.	.	.
16a	8e	8B	8GG
16g	.	.	.
8f#	4d	4A	4.AA
8a	.	.	.
8c#	8c#	8G	.
=66	=66	=66	=66
4.e	4.c#	4.G	[2BB
8d	4d	4F#	.
8b	.	.	8BB]
8e	8e	8A	8C#
=67	=67	=67	=67
4.g	4.e	2A	[2D
8f#	4f#	.	.
8dd	.	8f#	8D]
8g#	8g#	8B	8E
=68	=68	=68	=68
4.b	4.g#	4.d	2A
8a	8a	8c#	.
8gg	8r	8r	4r
8cc#	8a	8g	.
=69	=69	=69	=69
8dd	8r	8f#	2.r
8aa	8cc	8r	.
8dd#	8b	8a	.
8ee	4r	8g	.
8bb	.	8r	.
8dd#	8cc	8a	.
=70	=70	=70	=70
8ee	2.b	4.g	2.r
16ccc	.	.	.
16bb	.	.	.
16aa	.	.	.
16gg	.	.	.
8ff#	.	4.g#	.
8ee	.	.	.
8dd	.	.	.
=71	=71	=71	=71
8cc#	8a	8a	2.r
8r	8r	8A	.
8cc#	8a	8a	.
8dd	8b	8g#	.
8r	8r	8A	.
8dd	8b	8g#	.
=72	=72	=72	=72
8ee	8cc#	8g	2.r
8r	8r	8A	.
8ee	8cc#	8g	.
8ff#	8dd	8f#	.
8r	8r	8A	.
8ff#	8dd#	8f#	.
=73	=73	=73	=73
8gg	8ee	8e	2C#
8ee	8A	8G	.
8cc#	8A	8G	.
8a	4A	8G	.
8g	.	8G	8E
8e	8c#	8G	8G
=74	=74	=74	=74
4.c#	4.e	4.G	4.AA
8r	4.r	4.r	4.r
8aa	.	.	.
8gg	.	.	.
=75	=75	=75	=75
8ff#	8a	2.dd	8D
8ee	8g	.	8d
8ff#	8a	.	8d
8gg	8b	.	8d
8ff#	8a	.	8d
8gg	8b	.	8d
=76	=76	=76	=76
8ee	8g	4.cc#	8D
8dd	8f#	.	8d
8ee	8g	.	8d
8ff#	8f#	8dd	8d
8ddd	8r	8r	8r
8ccc#	8dd	8a	8F#
=77	=77	=77	=77
8r	8dd	8b	8G
8bb	8r	8r	8r
8aa	8dd	8f#	8F#
8r	8cc#	8a	8E
8gg	8r	8r	8r
8ff#	8dd	8a	8D
=78	=78	=78	=78
4aa	4ff#	8d	4.AA
.	.	8f#	.
8ff#	8dd	8g#	.
8ee	8cc#	8a	8A
8aa	8a	16f#	4r
.	.	16A	.
8gg	8g	16e	.
.	.	16A	.
=79	=79	=79	=79
8ff#	8f#	16d	8DD
.	.	16A	.
8ee	8e	16c#	8D
.	.	16A	.
8ff#	8f#	16d	8D
.	.	16A	.
8gg	8g	16e	8D
.	.	16A	.
8ff#	8f#	16d	8D
.	.	16A	.
8gg	8g	16e	8D
.	.	16A	.
=80	=80	=80	=80
8ee	8e	16c#	8DD
.	.	16A	.
8dd	8d	16B	8D
.	.	16A	.
8ee	8e	16c#	8D
.	.	16A	.
8ff#	8f#	8d	8D
8aa	8r	8r	8r
8aa#	8ee	8g	8c#
=81	=81	=81	=81
8bb	8ff#	4.f#	8d
8ccc#	8ee	.	8c#
8ddd	8dd	.	8B
8aa	8cc#	4e	4.E
8bb	8dd	.	.
8gg#	8b	8d	.
=82	=82	=82	=82
4.bb	4.g#	4.d	4AA
.	.	.	8E
8aa	8a	8c#	8A
8ee	8cc#	8a	4r
8ff#	8dd	8f#	.
=83	=83	=83	=83
8gg	8ee	8e	2r
8dd	8b	8g	.
8ee	8cc#	8e	.
8ff#	8dd	8d	.
8aa	8ff#	8cc	8d
8bb	8gg	8b	8d
=84	=84	=84	=84
8ccc	8aa	8a	2d
8gg	8ee	8b	.
8aa	8ff#	8a	.
8bb	8gg	8g	.
8ccc#	8ee	8g	8e
8ddd	8ff#	8f#	8d
=85	=85	=85	=85
8eee	8gg	8e	4c#
8gg	8ee	8a	.
8ff#	8dd	8a	8d
8bb	4.b	8dd	4.G
16aa	.	8e	.
16gg	.	.	.
16ff#	.	8g	.
16ee	.	.	.
=86	=86	=86	=86
4.dd	8a	4f#	2A
.	8b	.	.
.	8g#	8f	.
8cc#	8a	8e	.
8aa	8ff#	4r	4r
8gg	8ee	.	.
=87	=87	=87	=87
8ff#	8dd	8r	2.r
8ee	8cc#	8b	.
8ff#	8dd	8a	.
8gg	8ee	8g	.
8aa	8ff#	8f#	.
8bb	8gg	8e	.
=88	=88	=88	=88
8ee	8cc#	8a	2.r
8dd	8b	8a	.
8ee	8cc#	8g	.
8ff#	4dd	8f#	.
8gg	.	8e	.
8aa	8cc#	8f#	.
=89	=89	=89	=89
8aa	4.b	4.g	8r
8gg	.	.	8e
8gg	.	.	8d
4gg	8a	4ee	8c#
.	8cc#	.	8A
8ff#	8dd	8dd	8d
=90	=90	=90	=90
8ee	4b	4g	4.G
8gg	.	.	.
8bb	8g	8e	.
8dd	8f#	4a	4.A
8ee	8g	.	.
8cc#	8e	8g	.
=91	=91	=91	=91
8dd	8f#	8f#	8d
8r	8r	8D	8D
8dd	8f#	8D	8d
8ee	8g	[4.D	8c#
8r	8r	.	8D
8ee	8g	.	8c#
=92	=92	=92	=92
8ff#	8a	2.D]	8c
8r	8r	.	8D
8ff#	8a	.	8c
8gg	8b	.	8B
8r	8r	.	8D
8gg	8b	.	8B
=93	=93	=93	=93
8gg#	8dd	4.f	8B-
8r	8r	.	8D
8gg#	8d	.	8B-
8aa	8dd	4.f#	8A
8r	8r	.	8D
8aa	8d	.	8A
=94	=94	=94	=94
4.bb	4.dd	4.f	4.G#
4r	4.r	4.r	4.r
8bb	.	.	.
=95	=95	=95	=95
16aa	4f#	4d	4A
16ddd	.	.	.
16ccc#	.	.	.
16bb	.	.	.
16aa	8r	8r	8r
16gg	.	.	.
16ff#	4f#	4d	4A
16bb	.	.	.
16aa	.	.	.
16gg	.	.	.
16ff#	8r	8r	8r
16ee	.	.	.
=96	=96	=96	=96
16dd	4f#	4d	4A
16ff#	.	.	.
16ee	.	.	.
16dd	.	.	.
16cc#	8r	8r	8r
16b	.	.	.
16a	4g	4c# 4e	4A
16b	.	.	.
16a	.	.	.
16g	.	.	.
16f#	8r	8r	8r
16e	.	.	.
=97	=97	=97	=97
16d	4f#	4d	4D
16f#	.	.	.
16e	.	.	.
16d	.	.	.
16c#	8r	8G	8r
16B	.	.	.
16A	4f#	4F#	4D
16f#	.	.	.
16e	.	.	.
16d	.	.	.
16c#	8r	8G	8r
16B	.	.	.
=98	=98	=98	=98
16A	4.A	4.F#	4D
16g	.	.	.
16f#	.	.	.
16e	.	.	.
16d	.	.	8r
16c#	.	.	.
16B	4.B	4.G	4D
16a	.	.	.
16g	.	.	.
16f#	.	.	.
16e	.	.	8r
16d	.	.	.
=99	=99	=99	=99
16c#	4.e 4.c#	4.G	4D
16b	.	.	.
16a	.	.	.
16g	.	.	.
16f#	.	.	8r
16e	.	.	.
16d	4.A 4.f#	4.F#	4D
16ff#	.	.	.
16ee	.	.	.
16dd	.	.	.
16cc#	.	.	8r
16b	.	.	.
=100	=100	=100	=100
16a	4.g#	4.d	4.BB
16g#	.	.	.
16f#	.	.	.
16e	.	.	.
16f#	.	.	.
16d	.	.	.
16c#	16a	16e	16AA
16a	16a	16a	16A
16g#	16g#	16g#	16G#
16f#	16f#	16f#	16F#
16e	16e	16e	16E
16d	16d	16d	16D
=101	=101	=101	=101
16c#	16c#	16c#	16C#
16f#	16f#	16f#	16F#
16e	16e	16e	16E
16d	16d	16d	16D
16c#	16c#	16c#	16C#
16B	16B	16B	16BB
4A	8A	4A	[4.AA
.	8a	.	.
8r	8g	8r	.
=102	=102	=102	=102
8r	8f#	2.r	2.AA_
8dd	8e	.	.
8cc#	8f#	.	.
8b	8g	.	.
8a	8f#	.	.
8b	8g	.	.
=103	=103	=103	=103
8cc#	8e	8r	2.AA_
8b	8d	8A	.
8cc#	8e	8G	.
4dd	8f#	8F#	.
.	8g	8E	.
8cc#	8a	8F#	.
=104	=104	=104	=104
4.b	8a	8G	2AA]
.	8g	8E	.
.	8g	8D	.
8a	8g	8C#	.
8a	8f#	8c#	8AA
8a	8e	8c#	8GG
=105	=105	=105	=105
4.a	4.d#	4.c	8FF#
.	.	.	8EE
.	.	.	8FF#
8g	[4.e	4B	8GG
8g	.	.	8EE
8g	.	8B-	8DD
=106	=106	=106	=106
4g	8e]	4.A	8CC#
.	8e	.	8C#
8f#	8d	.	8D
8e	8B	4g	4GG
8ee	8b	.	.
8cc#	8g	8e	8AA
=107	=107	=107	=107
16ddd	8a	8d	8FF#
16ccc#	.	.	.
16bb	8r	8r	2r
16aa	.	.	.
16gg	8a	8f#	.
16ff#	.	.	.
16ee	8b	8g	.
16bb	.	.	.
16aa	8r	8r	.
16gg	.	.	.
16ff#	8e	8B	8G
16ee	.	.	.
=108	=108	=108	=108
16dd	8f#	8d	8A
16ff#	.	.	.
16ee	8r	8r	8r
16dd	.	.	.
16cc#	8f	8d	8G#
16b	.	.	.
16a	8d	8f#	8A
16b	.	.	.
16a	8r	8r	8r
16g	.	.	.
16f#	8c#	8G	8AA
16e	.	.	.
=109	=109	=109	=109
16ddd	8a	8F#	8FF#
16ccc#	.	.	.
16bb	8r	8r	2r
16aa	.	.	.
16gg	8a	8f#	.
16ff#	.	.	.
16ee	8b	8g	.
16bb	.	.	.
16aa	8r	8r	.
16gg	.	.	.
16ff#	8e	8B	8G
16ee	.	.	.
=110	=110	=110	=110
16dd	8f#	8d	8A
16ff#	.	.	.
16ee	8r	8r	8r
16dd	.	.	.
16cc#	8f	8d	8G#
16b	.	.	.
16a	8d	8f#	8A
16b	.	.	.
16a	8r	8r	8r
16g	.	.	.
16f#	8c#	8A	8AA
16e	.	.	.
=111	=111	=111	=111
16d	16d	16d	16D
16e	16e	16e	16E
16f#	16f#	16f#	16F#
16A	16A	16A	16AA
16B	16B	16B	16BB
16c#	16c#	16c#	16C#
16d	16d	16d	16D
16e	16e	16e	16E
16f#	16f#	16f#	16F#
16A	16A	16A	16AA
16B	16B	16B	16BB
16c#	16c#	16c#	16C#
=112	=112	=112	=112
16d	16d	16d	16D
16e	16e	16e	16E
16f#	16f#	16f#	16F#
16B	16B	16B	16BB
16c#	16c#	16c#	16C#
16d	16d	16d	16D
16e	16e	16e	16E
16f#	16f#	16f#	16F#
16g	16g	16g	16G
16c#	16c#	16c#	16C#
16d	16d	16d	16D
16e	16e	16e	16E
=113	=113	=113	=113
16f#	16f#	16f#	16F#
16g	16g	16g	16G
16a	16a	16a	16A
16d	16d	16d	16D
16e	16e	16e	16E
16f#	16f#	16f#	16F#
16g	16g	16g	16G
16a	16a	16a	16A
16b	16b	16b	16B
16cc#	16cc#	16cc#	16c#
16dd	16dd	16dd	16d
16ee	16ee	16ee	16e
=114	=114	=114	=114
8ff#	8ff#	8ff#	8f#
8dd	8dd	8dd	8d
8b	8b	8b	8B
8g	8g	8g	8G
8e	8e	8e	8E
8a	8a	8a	8A
=115	=115	=115	=115
8d	8d	8d	8D
8f#	8f#	8f#	8F#
8a	8a	8a	8A
8dd	8dd	8dd	8d
8ff#	8ff#	8a	8A
8aa	8aa	8f#	8F#
=116	=116	=116	=116
4ddd	4ff#	4d	4D
8r	8r	8r	8r
4ff# 4ddd 4d	4ff# 4a 4d	4D 4A 4d	4DD
8r	8r	8r	8r
=117	=117	=117	=117
4ddd 4ff# 4d	4ff# 4d 4a	4A 4D 4d	4DD
2r	2r	2r	2r
==	==	==	==
*-	*-	*-	*-
!!!RWG1: This file contains only pitch and duration data.
!!!RWG2: Transposing instruments are not transposed.
!!!RWG3: Spines may have incompatible meters.
!!!RWG4: Durations of rests and tied notes may be interpreted.
!!!RWG: Key is interpreted using the Humdrum key tool.
!!!GTL: 6 Quartetti ("Apponyi")
!!!AFT: stage1
!!!END: 1997/04/15
!!format changes:
!!content changes:
!!public access: complete
!!!KEY: 1255687202
!!!EMD: Converted from MuseData to Humdrum Dec 16, 2000, by Andreas Kornstaedt using muse2kern.
